svgs/notewise.svg

<svg width="192" height="192" viewBox="0 0 192 192" fill="none" xmlns="http://www.w3.org/2000/svg">
<path d="M118.095 22L29.9491 109.885C28.9232 110.908 28.2938 112.263 28.1732 113.706L24.0218 163.375C23.701 167.213 26.9662 170.388 30.7941 169.961L78.8066 164.596C80.1704 164.444 81.4432 163.837 82.4204 162.874L165.76 80.7038C168.179 78.3185 168.189 74.4184 165.784 72.0197L144.371 50.6699" stroke="black" stroke-width="12" stroke-linecap="round" stroke-linejoin="round"/>
</svg>

<svg width="192" height="192" viewBox="0 0 192 192" fill="none" xmlns="http://www.w3.org/2000/svg"><path d="m118.095 22-88.146 87.885a6.117 6.117 0 0 0-1.776 3.821l-4.151 49.669c-.321 3.838 2.944 7.013 6.772 6.586l48.013-5.365a6.114 6.114 0 0 0 3.613-1.722l83.34-82.17a6.116 6.116 0 0 0 .024-8.684l-21.413-21.35" stroke="#000" stroke-width="12" stroke-linecap="round" stroke-linejoin="round"/></svg>
